X:229
T: VIVAT ES LEBE DAS PREUSSISCHE HEER
N: E1368
O: Europa, Mitteleuropa, Deutschland, Pommern, Anclam
R: Staende -, Soldaten -, Kriegs - Lied
M: 4/4
L: 1/8
K: G
GA | B2B2B2B2 | B2d2B2
B2 | d2c2A2d2 | B4z2
GA | B2B2B2B2 | B2d2B2
B2 | d2c2A2F2 | G4z2
FG | B2A2A2GA | B4z2
FG | A2A2A2GA | B4z2
GA | B2B2B2B2 | B2d2B2
B2 | d2c2A2F2 | G4z2

@@@ Tune index: 4913
